X:3
T:Comptche Apples
C:Corwin Zekley
L:1/8
M:4/4
K:D
"D" DAdA cdeg | fedc d2 c2 |"G" B3 B2 A Bd |"Bm" cdAF"A" EGFE |$"D" DAdA cdeg | fedc d2 c2 |1 %6
"G" B2 (3ddd g2 f2- |"A" fedc"D" d4 :|2"G" B2 (3ddd g2 f2- ||"A" fedc"D" defg |:$"D" a3 a2 b aA | %11
 agfA agfA |"Em" g3 g2 a gB | gfeB gfeB |$"Bm" f4 f2 ab | =fe d2 B2 A2 |1"G" BG G/G/G Bdcd | %17
"A" eA A/A/A egfg :|2"G" B2 (3ddd g2 fg ||"A" eABc"D" d4 |] %20

